!! 00000] TT[00
!! NN
!!!OTL: San kan lang
!!!ARE: Asia, China,ÿHunan, Sangzhi
!! Ethnic Group: Han
!! I, 536, 2)
!!!SCT: C0125
!!!YEM: Copyright 1995, estate of Helmut Schaffrath.
**kern
*ICvox
*Ivox
*M2/4
*k[f#c#g#]
*A:
{8cc#
8a
4b
=1
8b
16a
16f#
4f#}
=2
{8b
16a
16b
8a
8a
=3
8a
16f#
16e
4e}
=4
{16a
8f#
16f#
8b
8b
=5
16a
8f#
16a
16cc#
8.b
=6
16b
8.a
4f#}
=7
{16b
8a
16b
16b
8a
16f#
=8
16cc#
8e
16f#
16e
16f#
8a}
=9
{8cc#
16e
16f#
8.a
16cc#
=10
8a
8f#
4e}
=11
{8cc#
8a
4b
=12
8b
16a
16f#
4f#}
=13
{16b
8a
16b
8b
8a
=14
8a
16f#
16e
4e}
=15
{8.b
16b
16cc#
8.b
=16
16a
8a
16a
16cc#
8.b
=17
16b
16a
16a
16f#
4f#}
=18
{8.e
16f#
16b
16a
8f#
=19
16b
16cc#
16a
16b
16cc#
8.b}
=20
{8cc#
16e
16f#
8.a
16cc#
=21
8a
8f#
4e}
=22
{8cc#
16ee
16cc#
4b
=23
8b
16a
16f#
4f#}
=24
{8b
16a
16b
8b
8a
=25
8a
16f#
16e
4e}
=26
{8.b
16a
8cc#
8b
=27
16b
16b
16b
16a
16cc#
8.b
=28
16b
16a
16a
16f#
4f#}
=29
{8.e
16f#
16b
16a
8f#
=30
16b
16b
16a
16f#
16e
16f#
8a}
=31
{8cc#
16e
16f#
8.a
16cc#
=32
8a
8f#
4e}
==
!!!AGN: Xiaodiao. Biaoda aiqing
!! Der Ehemann war in einer anderen Gegend als Landarbeiter
!!    beschaeftigt. Beim dritten Besuch in der Heimat starb er.
!!    Vor - und Zwischenspiele weggelassen. Einige Verzierungen.
!!!ONB: ESAC (Essen Associative Code) Database: CHINA
!!!AMT: simple duple
!!!AIN: vox
!!!EED: Helmut Schaffrath
!!!EEV: 1.0
*-
